X: 21
T: Frieze Breeches, The
Z: birlibirdie
S: https://thesession.org/tunes/34#setting50859
R: jig
M: 6/8
L: 1/8
K: Dmix
(FE)D (EF)G|AAd cAG|(AA)A (A2G)|FFF GED|
FED (EF)G|AAd cAG|(AAA) G2E|DDD D3 ||
d2e f2d|eed {d}cAG|A2A A2G|FFF GED|
d2e f2d|eed cAG|F2F GEA|DDD D3 ||

